data/pieces/simple/whiteKnight.svg

<svg xmlns="http://www.w3.org/2000/svg" width="1000pt" height="1000pt" viewBox="0 0 1000 1000"><path d="M120 642c0-34 17-70 40-113 22-42 42-95 56-156 29-119 62-134 80-140v-87h4l84 67h4l50-90h2l51 107c11-3 23-5 35-5 206 0 324 352 356 668H331c0-78 28-130 53-174 19-34 36-67 36-100v-10l-115 84c-27 33-56 48-79 48-15 0-28-7-35-20-4 1-8 1-12 1-32 0-59-28-59-80" style="stroke-width:2;stroke-linecap:butt;stroke-linejoin:miter;stroke:#fff;stroke-opacity:1;stroke-miterlimit:10;fill-rule:nonzero;fill:#fff;fill-opacity:1"/><path d="M120 642c0-34 17-70 40-113 22-42 42-95 56-156 29-119 62-134 80-140v-87h4l84 67h4l50-90h2l51 107c11-3 23-5 35-5 206 0 324 352 356 668H331c0-78 28-130 53-174 19-34 36-67 36-100v-10l-115 84c-27 33-56 48-79 48-15 0-28-7-35-20-4 1-8 1-12 1-32 0-59-28-59-80m53-4c0 25 6 31 17 31 4 0 7-1 12-3 9-15 18-28 36-29 6 0 14 1 14 5 0 2-2 4-5 6-11 7-12 19-12 27v7c12-8 35-25 61-47 44-37 105-83 144-108 19-12 37-24 50-58 8 9 11 20 11 32 0 29-18 62-30 73 3 13 5 23 5 36 0 54-28 111-56 157-14 22-24 45-26 69h419c-67-447-204-555-295-555-20 0-39 5-54 13l-27-55-22 38-96 23-11-11c-14 11-27 40-36 82-10 48-30 120-69 188-19 33-30 61-30 79m18-12c0-5 7-33 37-33 6 0 15 6 15 13 0 6-9 9-15 11s-6 2-14 11c-4 5-9 11-13 11-5 0-10-7-10-13m104-189c0-77 37-95 68-110 6-3 12-6 17-9 0 0 1 8 1 20 0 75-29 99-71 99z" style="stroke:none;fill-rule:nonzero;fill:#000;fill-opacity:1"/></svg>

<?xml version="1.0" encoding="UTF-8"?>
<!--
    Image is based on original work of Max Froumentin (mf@w3.org) which
    used to be available at:

    http://people.w3.org/maxf/ChessGML/ChessSophia.svg

    These images are under the W3C Software Notice and License, see
    COPYING.html for details.
-->
<svg xmlns="http://www.w3.org/2000/svg" xmlns:xlink="http://www.w3.org/1999/xlink" width="1000pt" height="1000pt" viewBox="0 0 1000 1000" version="1.1">
<g id="surface0">
<path style="stroke-width:2;stroke-linecap:butt;stroke-linejoin:miter;stroke:white;stroke-opacity:1;stroke-miterlimit:10;fill-rule:nonzero;fill:white;fill-opacity:1;" d="M 120 642 C 120 608 137 572 160 529 C 182 487 202 434 216 373 C 245 254 278 239 296 233 L 296 146 L 300 146 L 384 213 L 388 213 L 438 123 L 440 123 L 491 230 C 502 227 514 225 526 225 C 732 225 850 577 882 893 L 331 893 C 331 815 359 763 384 719 C 403 685 420 652 420 619 L 420 609 L 305 693 C 278 726 249 741 226 741 C 211 741 198 734 191 721 C 187 722 183 722 179 722 C 147 722 120 694 120 642"/>
<path style="stroke:none;fill-rule:nonzero;fill:black;fill-opacity:1;" d="M 120 642 C 120 608 137 572 160 529 C 182 487 202 434 216 373 C 245 254 278 239 296 233 L 296 146 L 300 146 L 384 213 L 388 213 L 438 123 L 440 123 L 491 230 C 502 227 514 225 526 225 C 732 225 850 577 882 893 L 331 893 C 331 815 359 763 384 719 C 403 685 420 652 420 619 L 420 609 L 305 693 C 278 726 249 741 226 741 C 211 741 198 734 191 721 C 187 722 183 722 179 722 C 147 722 120 694 120 642 M 173 638 C 173 663 179 669 190 669 C 194 669 197 668 202 666 C 211 651 220 638 238 637 C 244 637 252 638 252 642 C 252 644 250 646 247 648 C 236 655 235 667 235 675 C 235 679 235 682 235 682 C 247 674 270 657 296 635 C 340 598 401 552 440 527 C 459 515 477 503 490 469 C 498 478 501 489 501 501 C 501 530 483 563 471 574 C 474 587 476 597 476 610 C 476 664 448 721 420 767 C 406 789 396 812 394 836 L 813 836 C 746 389 609 281 518 281 C 498 281 479 286 464 294 L 437 239 L 415 277 L 319 300 L 308 289 C 294 300 281 329 272 371 C 262 419 242 491 203 559 C 184 592 173 620 173 638 M 191 626 C 191 621 198 593 228 593 C 234 593 243 599 243 606 C 243 612 234 615 228 617 C 222 619 222 619 214 628 C 210 633 205 639 201 639 C 196 639 191 632 191 626 M 295 437 C 295 360 332 342 363 327 C 369 324 375 321 380 318 C 380 318 381 326 381 338 C 381 413 352 437 310 437 L 295 437"/>
</g>
</svg>
